workspaces/osm/styles/symbols/shop/newsagent.svg

<svg width="14" height="14" version="1.1" viewBox="0 0 14 14" xmlns="http://www.w3.org/2000/svg"><rect id="a" width="14" height="14" fill="none" visibility="hidden"/><path d="m7 11h4v0.53684c-1.3333 0.0073-2.6667 0.01451-4 0.02177v-0.55861zm0-1h4v0.53684c-1.3333 0.0073-2.6667 0.01451-4 0.02177v-0.55861zm0-4h4v3h-4v-3zm-5 0c1.3333 0.007817 2.6667 0.015634 4 0.023451v0.53684c-1.3333-5.6e-4 -2.6667-0.00112-4-0.00168v-0.55861zm0 5h4v0.53684c-1.3333 0.0073-2.6667 0.01451-4 0.02177v-0.55861zm0-1h4v0.53684c-1.3333 0.0073-2.6667 0.01451-4 0.02177v-0.55861zm0-1c1.3333 0.007817 2.6667 0.015634 4 0.023451v0.53684c-1.3333-5.6e-4 -2.6667-0.00112-4-0.00168v-0.55861zm0-1c1.3333 0.007817 2.6667 0.015634 4 0.023451v0.53684c-1.3333-5.6e-4 -2.6667-0.00112-4-0.00168v-0.55861zm0-1h4v0.53684c-1.3333 0.0072558-2.6667 0.014512-4 0.021767v-0.55861zm0-5v2.5104c3 0.015634 6 0.031267 9 0.046901v-2.5573h-9zm-2-2v14h13v-14h-13zm1 1h11v12h-11v-12z"/></svg>

<?xml version="1.0" encoding="UTF-8" standalone="no"?>
<svg
   xmlns:dc="http://purl.org/dc/elements/1.1/"
   xmlns:cc="http://creativecommons.org/ns#"
   xmlns:rdf="http://www.w3.org/1999/02/22-rdf-syntax-ns#"
   xmlns:svg="http://www.w3.org/2000/svg"
   xmlns="http://www.w3.org/2000/svg"
   id="svg2"
   viewBox="0 0 14 14"
   height="14"
   width="14"
   version="1.1">
  <metadata
     id="metadata8">
    <rdf:RDF>
      <cc:Work
         rdf:about="">
        <dc:format>image/svg+xml</dc:format>
        <dc:type
           rdf:resource="http://purl.org/dc/dcmitype/StillImage" />
        <dc:title></dc:title>
      </cc:Work>
    </rdf:RDF>
  </metadata>
  <defs
     id="defs6" />
  <rect
     style="fill:none;stroke:none;visibility:hidden"
     id="canvas"
     y="0"
     x="0"
     height="14"
     width="14" />
  <path
     style="fill:#000000;fill-opacity:1;stroke:none"
     id="path3795-5-5"
     d="m 7,11 4,0 0,0.536839 -4,0.02177 z m 0,-1 4,0 0,0.536839 -4,0.02177 z M 7,6 11,6 11,9 7,9 Z M 2,6 6,6.023451 6,6.5602898 2,6.5586098 Z m 0,5 4,0 0,0.536839 -4,0.02177 z m 0,-1 4,0 0,0.536839 -4,0.02177 z M 2,9 6,9.023451 6,9.5602901 2,9.5586101 Z M 2,8 6,8.023451 6,8.5602898 2,8.5586098 Z M 2,7 6,7 6,7.5368388 2,7.5586062 Z M 2,2 2,4.510373 11,4.5572742 11,2 Z M 0,0 c 0,1.5606474 0,8.9375328 0,11 0,2 0,0 0,3 l 10,0 3,0 0,-14 z m 1,1 11,0 0,12 -9,0 c -1.4082984,0 0,0 -2,0 z" />
</svg>
